src/components/icon/google-maps.svg

<svg xmlns="http://www.w3.org/2000/svg" width="16" height="16" viewBox="0 0 40 40">
<path d="M38,36.5857864 L38,3 C38,2.44771525 37.5522847,2 37,2 L3,2 C2.44771525,2 2,2.44771525 2,3 L2,36.5857864 L24.5,14.0857864 L25.9142136,15.5 L21.4142136,20 L38,36.5857864 Z M36.5857864,38 L20,21.4142136 L3.41421356,38 L36.5857864,38 Z M3,0 L37,0 C38.6568542,0 40,1.34314575 40,3 L40,37 C40,38.6568542 38.6568542,40 37,40 L3,40 C1.34314575,40 0,38.6568542 0,37 L0,3 C0,1.34314575 1.34314575,0 3,0 Z M18.5842667,10.1875 C18.6718667,10.6555333 18.7197,11.1456 18.7197,11.6574333 C18.7197333,15.6562667 16.0425667,18.5 12,18.5 C8.13256667,18.5 5,15.3674333 5,11.5 C5,7.63256667 8.13256667,4.5 12,4.5 C13.8901333,4.5 15.4692333,5.19556667 16.6813333,6.32433333 L14.7078667,8.29756667 L14.7078667,8.29306667 C13.973,7.593 13.0412,7.23433333 12,7.23433333 C9.6901,7.23433333 7.8132,9.18556667 7.8132,11.4957 C7.8132,13.8053667 9.69006667,15.7613 12,15.7613 C14.0956667,15.7613 15.5217667,14.5624667 15.8153333,12.9175667 L12,12.9175667 L12,10.1875 L18.5842667,10.1875 Z M23,10 C23,6.13400675 26.1340068,3 30,3 C33.8659932,3 37,6.13400675 37,10 C37,11.264211 36.6819707,12.4806386 36.0752945,13.4784725 C36.0006938,13.6011724 35.6409307,14.1746512 35.5609103,14.3038118 C35.3042421,14.7180988 35.0725885,15.1050141 34.8330294,15.5248231 C34.182378,16.6650397 33.5727042,17.8779997 32.9978397,19.2269221 C32.9062068,19.4419391 32.8159836,19.6593066 32.7272123,19.8790919 C32.3833642,20.7304116 31.9470411,22.2566623 31.4302849,24.4321924 L31.3775586,24.5925318 C30.8598397,25.8095922 29.1348273,25.8096687 28.6170004,24.5926543 L28.5647156,24.4342293 C28.0459938,22.2701836 27.6110767,20.7507225 27.2713932,19.9005685 C27.1981362,19.7172223 27.1239679,19.5356284 27.0489157,19.3557651 C26.4619696,17.9491432 25.8383394,16.6859339 25.1858194,15.5311606 C24.9363534,15.0896774 24.6921492,14.680766 24.4424611,14.2812473 C24.3456128,14.1262831 24.2509907,13.977562 24.1485319,13.8186659 C24.0875363,13.7240721 24.0215094,13.6224056 23.9153149,13.4589584 C23.3058007,12.5182578 23,11.2928504 23,10 Z M30.8727633,19.1300799 C30.9662946,18.8985095 31.061372,18.6694471 31.1579509,18.4428244 C31.7644895,17.0195788 32.4085748,15.7381562 33.0959522,14.5335801 C33.3485227,14.0909696 33.592225,13.6839301 33.8607563,13.250495 C33.9472906,13.1108204 34.3004441,12.5478775 34.3663644,12.4394547 C34.7760312,11.7656531 35,10.9089967 35,10 C35,7.23857625 32.7614237,5 30,5 C27.2385763,5 25,7.23857625 25,10 C25,10.9316576 25.212407,11.7828166 25.5937831,12.3714178 C25.6980369,12.5318711 25.7662991,12.6369795 25.8293894,12.7348218 C25.9366586,12.9011779 26.0362411,13.0576956 26.1384788,13.2212832 C26.4031903,13.6448404 26.6624077,14.078891 26.9270599,14.5472494 C27.6174756,15.769087 28.2761337,17.103248 28.8946716,18.5855801 C28.9736129,18.7747636 29.051609,18.9657293 29.1286312,19.1584993 C29.384666,19.7992986 29.6724844,20.71997 29.9954544,21.927799 C30.3204038,20.7065992 30.6116461,19.7765697 30.8727633,19.1300799 Z M30,13 C28.3431458,13 27,11.6568542 27,10 C27,8.34314575 28.3431458,7 30,7 C31.6568542,7 33,8.34314575 33,10 C33,11.6568542 31.6568542,13 30,13 Z M30,11 C30.5522847,11 31,10.5522847 31,10 C31,9.44771525 30.5522847,9 30,9 C29.4477153,9 29,9.44771525 29,10 C29,10.5522847 29.4477153,11 30,11 Z"/>
</svg>

<svg xmlns="http://www.w3.org/2000/svg" width="16" height="16" viewBox="0 0 40 40"><path d="M38 36.586V3a1 1 0 0 0-1-1H3a1 1 0 0 0-1 1v33.586l22.5-22.5 1.414 1.414-4.5 4.5L38 36.586zM36.586 38L20 21.414 3.414 38h33.172zM3 0h34a3 3 0 0 1 3 3v34a3 3 0 0 1-3 3H3a3 3 0 0 1-3-3V3a3 3 0 0 1 3-3zm15.584 10.188c.088.468.136.958.136 1.47 0 3.998-2.677 6.842-6.72 6.842-3.867 0-7-3.133-7-7s3.133-7 7-7c1.89 0 3.47.696 4.681 1.824l-1.973 1.974v-.005c-.735-.7-1.667-1.059-2.708-1.059-2.31 0-4.187 1.952-4.187 4.262 0 2.31 1.877 4.265 4.187 4.265 2.096 0 3.522-1.199 3.815-2.843H12v-2.73h6.584zM23 10a7 7 0 0 1 14 0c0 1.264-.318 2.48-.925 3.478-.074.123-.434.697-.514.826a35.44 35.44 0 0 0-2.834 5.575c-.344.851-.78 2.378-1.297 4.553l-.052.16c-.518 1.218-2.243 1.218-2.761 0l-.052-.158c-.519-2.164-.954-3.683-1.294-4.533a35.635 35.635 0 0 0-2.086-4.37 32.567 32.567 0 0 0-1.036-1.712l-.234-.36C23.305 12.519 23 11.293 23 10zm7.873 9.13a37.432 37.432 0 0 1 2.988-5.88c.086-.14.44-.702.505-.81.41-.674.634-1.531.634-2.44a5 5 0 0 0-10 0c0 .932.212 1.783.594 2.371l.235.364c.108.166.207.323.31.486.264.424.523.858.788 1.326a37.629 37.629 0 0 1 2.202 4.611c.256.641.543 1.562.866 2.77.325-1.221.617-2.151.878-2.798zM30 13a3 3 0 1 1 0-6 3 3 0 0 1 0 6zm0-2a1 1 0 1 0 0-2 1 1 0 0 0 0 2z"/></svg>
